packages/match-logos/mono/svg/intuit.svg

<svg width="125" height="36" viewBox="0 0 125 36" fill="none" xmlns="http://www.w3.org/2000/svg">
<g clip-path="url(#clip0)">
<path d="M26.73 9.98961C23.76 9.98961 20.79 11.0696 18.45 12.9596L18.36 11.6096C18.27 10.8896 17.82 10.6196 17.1 10.6196H13.77C12.87 10.6196 12.51 11.0696 12.51 11.8796V34.1996C12.51 35.0096 12.96 35.4596 13.77 35.4596H17.46C18.36 35.4596 18.72 35.0996 18.72 34.1996V17.9996C20.34 16.6496 22.77 15.5696 24.75 15.5696C27.9 15.5696 28.62 17.5496 28.62 20.3396V34.1996C28.62 35.0996 28.89 35.5496 29.88 35.5496H33.57C34.47 35.5496 34.83 35.0996 34.83 34.1996V19.1696C34.74 13.4996 32.4 9.98961 26.73 9.98961ZM5.22 10.6196H0.9C0.27 10.6196 0 11.0696 0 11.6096V34.1096C0 35.0096 0.45 35.3696 1.35 35.3696H4.95C5.85 35.3696 6.21 35.0096 6.21 34.1096V11.6096C6.21 10.9796 5.85 10.6196 5.22 10.6196ZM47.97 7.37961C50.04 7.37961 51.66 5.66961 51.66 3.68962C51.66 1.61962 49.95 -0.000384884 47.97 -0.000384884C45.9 -0.0903849 44.19 1.61962 44.19 3.59962C44.19 5.57962 45.9 7.37961 47.97 7.37961ZM57.06 10.6196H38.88C38.25 10.6196 37.89 10.7996 37.89 11.5196V15.1196C37.89 15.7496 38.34 16.1096 38.88 16.1096H44.82V34.1096C44.82 35.0096 45.27 35.3696 46.17 35.3696H49.68C50.58 35.3696 51.03 35.0096 51.03 34.1096V16.1096H56.97C57.6 16.1096 57.96 15.7496 57.96 15.1196V11.5196C58.05 10.7996 57.69 10.6196 57.06 10.6196ZM111.24 7.37961C113.31 7.37961 114.93 5.66961 114.93 3.68962C114.93 1.61962 113.22 -0.000384884 111.24 -0.000384884C109.17 -0.000384884 107.55 1.70961 107.55 3.68962C107.55 5.66961 109.17 7.37961 111.24 7.37961ZM121.95 32.2196C121.05 32.2196 120.33 32.9396 120.33 33.8396C120.33 34.8296 121.05 35.4596 121.95 35.4596C122.85 35.4596 123.57 34.7396 123.57 33.8396C123.57 32.9396 122.85 32.2196 121.95 32.2196ZM121.95 35.2796C121.14 35.2796 120.6 34.6496 120.6 33.8396C120.6 33.0296 121.23 32.3996 121.95 32.3996C122.67 32.3996 123.3 33.0296 123.3 33.8396C123.3 34.7396 122.67 35.2796 121.95 35.2796ZM121.23 15.0296V11.4296C121.23 10.7996 120.87 10.5296 120.24 10.5296H102.15C101.52 10.5296 101.16 10.7096 101.16 11.4296V15.0296C101.16 15.6596 101.61 16.0196 102.15 16.0196H108V34.0196C108 34.9196 108.45 35.2796 109.35 35.2796H112.86C113.76 35.2796 114.21 34.9196 114.21 34.0196V16.0196H120.15C120.87 16.0196 121.23 15.6596 121.23 15.0296ZM122.67 33.4796C122.67 33.1196 122.49 32.9396 121.95 32.9396H121.23V34.8296H121.5V34.0196H121.86L122.4 34.8296H122.76L122.22 34.0196C122.49 34.0196 122.67 33.8396 122.67 33.4796ZM121.86 33.7496H121.59V33.1196H121.95C122.13 33.1196 122.4 33.1196 122.4 33.3896C122.4 33.7496 122.13 33.7496 121.86 33.7496ZM95.94 10.6196H91.62C90.99 10.6196 90.72 11.0696 90.72 11.6096V34.1096C90.72 35.0096 91.17 35.3696 92.07 35.3696H95.67C96.57 35.3696 96.93 35.0096 96.93 34.1096V11.6096C96.93 10.9796 96.57 10.6196 95.94 10.6196ZM82.98 10.6196H79.38C78.57 10.6196 78.12 10.8896 78.12 11.7896V28.0796C76.59 29.4296 74.16 30.5096 72.18 30.5096C69.12 30.5096 68.4 28.6196 68.4 25.7396V11.7896C68.4 10.8896 67.95 10.6196 67.14 10.6196H63.54C62.73 10.6196 62.19 10.8896 62.19 11.7896V26.8196C62.28 32.3996 64.62 35.9996 70.38 35.9996C73.35 35.9996 76.14 35.0096 78.48 33.1196L78.57 34.3796C78.66 35.0096 79.11 35.3696 79.83 35.3696H82.98C83.97 35.3696 84.33 35.0096 84.33 33.9296V11.7896C84.33 10.7996 83.88 10.6196 82.98 10.6196Z" fill="#1F304C"/>
</g>
<defs>
<clipPath id="clip0">
<rect width="124.2" height="36" fill="white"/>
</clipPath>
</defs>
</svg>

<svg fill="none" height="36" viewBox="0 0 125 36" width="125" xmlns="http://www.w3.org/2000/svg" xmlns:xlink="http://www.w3.org/1999/xlink"><clipPath id="a"><path d="m0 0h124.2v36h-124.2z"/></clipPath><g clip-path="url(#a)"><path d="m26.73 9.98961c-2.97 0-5.94 1.07999-8.28 2.96999l-.09-1.35c-.09-.72-.54-.99-1.26-.99h-3.33c-.9 0-1.26.45-1.26 1.26v22.32c0 .81.45 1.26 1.26 1.26h3.69c.9 0 1.26-.36 1.26-1.26v-16.2c1.62-1.35 4.05-2.43 6.03-2.43 3.15 0 3.87 1.98 3.87 4.77v13.86c0 .9.27 1.35 1.26 1.35h3.69c.9 0 1.26-.45 1.26-1.35v-15.03c-.09-5.67-2.43-9.17999-8.1-9.17999zm-21.51.62999h-4.32c-.63 0-.9.45-.9.99v22.5c0 .9.45 1.26 1.35 1.26h3.6c.9 0 1.26-.36 1.26-1.26v-22.5c0-.63-.36-.99-.99-.99zm42.75-3.23999c2.07 0 3.69-1.71 3.69-3.68999 0-2.07-1.71-3.69000488-3.69-3.69000488-2.07-.09000002-3.78 1.62000488-3.78 3.60000488s1.71 3.77999 3.78 3.77999zm9.09 3.23999h-18.18c-.63 0-.99.18-.99.9v3.6c0 .63.45.99.99.99h5.94v18c0 .9.45 1.26 1.35 1.26h3.51c.9 0 1.35-.36 1.35-1.26v-18h5.94c.63 0 .99-.36.99-.99v-3.6c.09-.72-.27-.9-.9-.9zm54.18-3.23999c2.07 0 3.69-1.71 3.69-3.68999 0-2.07-1.71-3.69000488-3.69-3.69000488-2.07 0-3.69 1.70999488-3.69 3.69000488 0 1.97999 1.62 3.68999 3.69 3.68999zm10.71 24.83999c-.9 0-1.62.72-1.62 1.62 0 .99.72 1.62 1.62 1.62s1.62-.72 1.62-1.62-.72-1.62-1.62-1.62zm0 3.06c-.81 0-1.35-.63-1.35-1.44s.63-1.44 1.35-1.44 1.35.63 1.35 1.44c0 .9-.63 1.44-1.35 1.44zm-.72-20.25v-3.6c0-.63-.36-.9-.99-.9h-18.09c-.63 0-.99.18-.99.9v3.6c0 .63.45.99.99.99h5.85v18c0 .9.45 1.26 1.35 1.26h3.51c.9 0 1.35-.36 1.35-1.26v-18h5.94c.72 0 1.08-.36 1.08-.99zm1.44 18.45c0-.36-.18-.54-.72-.54h-.72v1.89h.27v-.81h.36l.54.81h.36l-.54-.81c.27 0 .45-.18.45-.54zm-.81.27h-.27v-.63h.36c.18 0 .45 0 .45.27 0 .36-.27.36-.54.36zm-25.92-23.13h-4.32c-.63 0-.9.45-.9.99v22.5c0 .9.45 1.26 1.35 1.26h3.6c.9 0 1.26-.36 1.26-1.26v-22.5c0-.63-.36-.99-.99-.99zm-12.96 0h-3.6c-.81 0-1.26.27-1.26 1.17v16.29c-1.53 1.35-3.96 2.43-5.94 2.43-3.06 0-3.78-1.89-3.78-4.77v-13.95c0-.9-.45-1.17-1.26-1.17h-3.6c-.81 0-1.35.27-1.35 1.17v15.03c.09 5.58 2.43 9.18 8.19 9.18 2.97 0 5.76-.99 8.1-2.88l.09 1.26c.09.63.54.99 1.26.99h3.15c.99 0 1.35-.36 1.35-1.44v-22.14c0-.99-.45-1.17-1.35-1.17z" fill="#1f304c"/></g></svg>
